icons/sword.svg

<svg width="24" height="24" viewBox="0 0 24 24" fill="none" xmlns="http://www.w3.org/2000/svg">
<path d="M7.59588 17.9371L4.59767 20.7775C4.52328 20.848 4.43497 20.9039 4.33777 20.942C4.24058 20.9801 4.13641 20.9998 4.03121 20.9998C3.92601 20.9998 3.82183 20.9801 3.72464 20.942C3.62745 20.9039 3.53914 20.848 3.46475 20.7775L2.23464 19.6121C2.16025 19.5416 2.10124 19.458 2.06098 19.3659C2.02072 19.2738 2 19.1751 2 19.0755C2 18.9758 2.02072 18.8771 2.06098 18.785C2.10124 18.693 2.16025 18.6093 2.23464 18.5388L5.23285 15.6984C5.30724 15.6279 5.36625 15.5443 5.40651 15.4522C5.44676 15.3601 5.46749 15.2614 5.46749 15.1618C5.46749 15.0621 5.44676 14.9634 5.40651 14.8713C5.36625 14.7793 5.30724 14.6956 5.23285 14.6251L3.14126 12.6436C2.99103 12.5013 2.90663 12.3082 2.90663 12.107C2.90663 11.9057 2.99103 11.7127 3.14126 11.5703L4.41163 10.3668C4.56186 10.2245 4.76562 10.1445 4.97809 10.1445C5.19055 10.1445 5.39431 10.2245 5.54455 10.3668L13.2237 17.6418C13.3739 17.7841 13.4583 17.9771 13.4583 18.1784C13.4583 18.3797 13.3739 18.5727 13.2237 18.7151L11.9533 19.9186C11.8031 20.0609 11.5993 20.1409 11.3869 20.1409C11.1744 20.1409 10.9706 20.0609 10.8204 19.9186L8.7288 17.9371C8.57857 17.7947 8.37481 17.7148 8.16234 17.7148C7.94988 17.7148 7.74612 17.7947 7.59588 17.9371Z" stroke="#1E293B" stroke-width="2" stroke-linecap="round" stroke-linejoin="round"/>
<path d="M7.00095 11.7468L14.6114 3.01907L21 3L20.9799 9.05239L11.7673 16.2622" stroke="#1E293B" stroke-width="2" stroke-linecap="round" stroke-linejoin="round"/>
<path d="M9.38411 14.0045L15.3923 8.3125" stroke="#1E293B" stroke-width="2" stroke-linecap="round" stroke-linejoin="round"/>
</svg>

<svg
  width="24"
  height="24"
  viewBox="0 0 24 24"
  xmlns="http://www.w3.org/2000/svg"
  fill="none"
  stroke="currentColor"
  stroke-width="2"
  stroke-linecap="round"
  stroke-linejoin="round"
>
  <path d="M7.596 17.937l-2.998 2.84a.84.84 0 0 1-1.133 0l-1.23-1.165a.725.725 0 0 1 0-1.073l2.998-2.84a.725.725 0 0 0 0-1.073L3.14 12.643a.74.74 0 0 1-.234-.537.74.74 0 0 1 .234-.537l1.27-1.203a.824.824 0 0 1 .567-.223c.213 0 .416.08.567.223l7.679 7.275a.74.74 0 0 1 .234.536.74.74 0 0 1-.234.537l-1.27 1.204a.824.824 0 0 1-.567.222.824.824 0 0 1-.567-.222L8.73 17.937a.824.824 0 0 0-.567-.222.824.824 0 0 0-.566.222z" />
  <path d="M7 11.747l7.611-8.728L21 3l-.02 6.052-9.213 7.21" />
  <path d="M9.384 14.005l6.008-5.693" />
</svg>
